X: 3692
T: Billy Nicholson
R: reel
M: 4/4
K: Gmajor
GDGA B2AG|ADFAc2Bc|dgge dedB|cAFA GEDE|
GDGA B2AG|ADFA c2Bc|dgge dedc|1 B2G2G2(3DEF:|2 B2G2G2Bc||
|:dggf gagd|eaaga3f|1 gage dedB|c2A2A2Bc:|2 gage dedc|B2G2G2Bc||
dggf gagd|eaag abaf|gage dedB|cAFA GEDB,|
GDGA B2AG|ADFA c2Bc|dgge dedc|B2G2 G2(3DEF|
GDGA B2AG|ADFA c2Bc|dgge dedB|cAFA GEDE|
GDGA B2AG|ADFA c2Bc|dgge dedc|B2G2 G2Bc|
|:dggf gagd|eaaga3f|1 gage dedB|c2A2A2Bc:|2 gage dedc|B2G2G2Bc||
dggf gagd|eaag abaf|gage dedB|cAFA GEDE|
GDGA B2AG|ADFA c2Bc|dgge dedc|B2G2 G4||

